X: 1321
T: An Old Woman's Money
R: jig
M: 6/8
K: Gmajor
|:DGG G2A|DFF F2A|DGG G2c|BdB cAG|
DGG G2A|DFF F2d|cAG FGA|1 c3 cAG]:|2 c3 cAd]|
|:cAG G2d|cAG G2d|cAG G2c|BdB cAd|
cAG G2d|cAG G2d|cAG FGA|c3 cAG:|
|:ABc/d/ f2g|gbg g3|ABc/d/ f2g|g3 g3|
abg fag|fBB f2g|cAG FGA|c3 cAG:|
|:G2A B2G|A2F DED|GAG G2c|BdB cAG|
G2A B2G|A2F DED|F3 FGA|c3 cAG:|

